X:1
T:Title
%%score { 1 | 2 }
L:1/8
Q:1/4=92
M:6/8
K:G
V:1 treble nm="Grand Piano"
V:2 treble 
V:1
 ddd d2 B | [EA][EG]E E3 | DDD A3 | DGA B3 | ddd d2 B | [EA][EG]E E3 | DDD A2 B | [B,G]6 |] %8
w: P.~P.~Bliss * * * *||||||||
V:2
 [G,B,G][G,B,G][G,B,G] [G,B,G]2 [G,D] | [C,C][C,G,][C,G,C] [C,G,C]3 | %2
 [D,F,C][D,F,C][D,F,C] [D,F,C]3 | [G,B,][G,B,][K:treble][G,C] [G,D]3 | %4
 [G,B,G][G,B,G][G,B,G] [G,B,G]2[K:bass] [G,D] | [C,C][C,G,][C,G,C] [C,G,C]3 | %6
 [D,F,C][D,F,C][D,F,C] [D,F,C]2 [D,F,D] | [G,,G,]6 |] %8

